X: 13434
T: Flogging, The
R: reel
M: 4/4
K: Gmajor
BG ~G2 BGdG|BG ~G2 Bdgd|BG ~G2 BGdG|AGFG ABcA|
BG ~G2 BGdG|BG ~G2 Bdgd|BG ~G2 BGdG|AGFG ABcd||
g2 gd BGBd|g2 ge fgaf|gfgd BGBd|AGFG ABcd|
g2 gd BGBd|g2 ge fgaf|bgaf gedB|AGFG ABcA||
Bdgd Bdgd|Bdgd BGGB|Ac=fc Acfc|Ac=fc A=FFA|
Bdgd Bdgd|Bdef g2 ga|bgaf gedB|AGFG ABcA||

